X:1
T:Ballade No 1
T:Ballade No 1
T:from Ballades Op. 10
T:Johannes Brahms (1833-1897) 
C:Johannes Brahms (1833-1897)
%%score { ( 1 4 ) | ( 2 3 ) }
L:1/8
Q:1/4=92
M:4/4
K:F
V:1 treble nm="Grand Piano" snm="Pno."
V:4 treble 
V:2 bass 
V:3 bass 
V:1
!p!"^Andante" [Afa]2 |{/[Bgb]} [Afa]2 (.[Fdf].[Geg]) [Afa]2 [DFd]2 | [EAe]3 [A,A] [A,A]2 ([Ee]2 | %3
 A2)!pp! ([E,E]2 A,2)!p! [Afa]2 |{/[Bgb]} [Afa]2 (.[Fdf].[Geg]) [Afa]2"_dim." [DBd]2 | %5
!p!{/[_Ec_e]} [DBd]2 (.[B,GB].[CAc]) [DBd]2!>(! (([G,G]2 | [G,^C]6))!>)![K:bass]!pp!!>(! (^C2 | %7
 D6) (^G,2!>)! |!pp! A,6)[K:treble]!p![Q:1/4=100]"^Poco più moto" ([FBd]2 || %9
 [_EAc]2 [DFB][EAc] [C^FA]2 [B,G]2) | ([FBd]2 [_EAc]2 [C^FA]3 [B,G] | %11
 [B,G]2) ([_B,_EG]2 [_A,DF]2 [G,B,E][A,DF] | %12
[I:staff +1] [F,=B,D]2 [_E,C]2)!<(![I:staff -1] ([_B,_EG]2"^sostenuto"[Q:1/4=92]"^\n" [_A,DF]2!<)! | %13
!mp!!>(! [B,B]3 [A,A]!>)!!p! !fermata![A,A]2)!p![Q:1/4=92]"^Tempo I" [Afa]2 | %14
{/[Bgb]} [Afa]2 (.[Fdf].[Geg]) [Afa]2 [DFd]2 | [EAe]3 [A,A] [A,A]2 ([Ee]2 | %16
 A2)!pp! ([E,E]2 A,2)!p! [Afa]2 |{/[Bgb]} [Afa]2 (.[Fdf].[Geg]) [Afa]2 [DBd]2 | %18
{/[_Ec_e]} [DBd]2 (.[B,GB].[CAc]) [DBd]2!>(! (([G,G]2 | [G,^C]6))!>)![K:bass]!pp!!>(! (^C2 | %20
 D6) B,2!>)! |!pp! F,6[K:treble]!p![Q:1/4=100]"^Poco\n"!p! ([FB]2 | %22
"^più moto" [_EAc]2 [FBd][EAc] [FBd]2 [GBg]2) | ([GB]2 [Gc]2 [^Fd]3 [DG] | %24
 [DG]2) ([B,_E]2 [_A,DF]2 [B,EG][A,DF] | [B,_EG]2 [CEc]2) ([G,CE]2"^sostenuto"[Q:1/4=92] [B,DF]2 | %26
!<(! [B,DG]3!<)!!mp! [A,DA] !fermata![A,DA]2) || %27
[K:D]!p![Q:1/4=120]"^Allegro (ma non troppo)"!<(! (3[Fdf][Fdf][Fdf]!<)! | %28
!p! !>![Fdf]6[K:bass][K:treble]!<(! (3[Fdf][Fdf][Fdf]!<)! | %29
!mp! !>![Fdf]6[K:bass][K:treble] (3[Fdf][Geg][Afa] | %30
 !>![EAe]6[K:bass][K:treble] (3.[Fdf].[Geg].[Afa] | !>![EAe]6[K:bass][K:treble] (3[Fdf][Fdf][Fdf] | %32
 !>![Fdf]6 (3[F^df][Ee][Ff] | !>![GBg]6!f! (3[^GB^g][GBg][GBg] | !>![^GB^g]6 (3.[Gcg].[Ff].[Gg] | %35
 !>![Aca]6"^sempre cresc.""_cresc." (3.[^Af^a].[Afa].[Afa] | !>![^Af^a]6 (3[Bfb][Bfb][Bfb] | %37
!f!!<(! [Bfb]2 (3[cf^ac'][cfac'][cfac'] [cfac']2 (3[^df^d'][dfd'][dfd']!<)! | %38
!ff! [^df^d']6 (3[eac'e'][eac'e'][eac'e'] | [eac'e']6!f!!<(! (3[fd'f'][fd'f'][fd'f'] | %40
 [fd'f']2!8va(! (3[gd'e'g'][gd'e'g'][gd'e'g'] [gd'e'g']2 (3[ad'f'a'][ad'f'a'][ad'f'a']!<)!!ff! | %41
 !>![ad'f'a']6!8va)!!8va(! (3[af'a'][af'a'][af'a'] | %42
 !>![af'a']6!8va)!!<(!!8va(! (3[a=f'a'][af'a'][af'a']!<)! | %43
!ff! !>![_bd'=f'_b']6!8va)!!ff!!<(!!8va(! (3[a=f'a'][af'a'][af'a']!<)! | %44
!ff! !>![_bd'=f'_b']6!8va)!!ff!!<(! (!>![d=f_bd']2!<)! || %45
[K:F]!ff!"_pesante" !>![c_eac']2 (.[Bfb].[ceac']) !>![Ac^fa]2!ff!!<(! !>![GBdg]2)!<)! | %46
!ff! (.[dfbd']2 .[c_eac']2) ([Ac^fa]3 [GBdg]) | %47
 [GBdg]2 (!>![GB_eg]2 !>![F_Adf]2) (.[_EBe].[FAdf]) | %48
 ([DF=Bd]2!ff!!<(! [C_EGc]2)!<)!!ff! (.[G_B_eg]2 .[F_Adf]2) | %49
 ([DF=Bd]3 [C_EGc]) [CEGc]2!ff! ([F_Ad]2 | [_E_Ac]2 (.[FAB].[EAc]) [B,FA]2 [B,EG]2) | %51
 ([F_Ad]2 [_EAc]2 [B,FA]3 [B,EG] | [B,_EG]2) ([B,EG]2 [_A,DF]2 [B,E][A,DF] | %53
 [F,=B,D]2 [_E,C]2) ([_B,_EG]2 [_A,DF]2 | %54
"^poco a poco rit. e dim."[Q:1/4=119]!>(! [B,_EB]2[Q:1/4=118] [B,F_A]2[Q:1/4=117] [B,EG]2[Q:1/4=116] [_A,DF]2) | %55
[Q:1/4=115] ([B,_EB]2[Q:1/4=114] [B,F_A]2[Q:1/4=113] [B,EG]4[Q:1/4=112] | %56
[Q:1/4=111] [_A,DF]4[Q:1/4=109] [G,B,_E]4[Q:1/4=110][Q:1/4=108] | %57
[Q:1/4=107] [B,D]4[Q:1/4=105] [B,_D]4[Q:1/4=106][Q:1/4=104] | %58
[Q:1/4=103] [A,C]2)!>)!!pp![Q:1/4=102] z2[Q:1/4=101] z4[Q:1/4=100] | %59
[Q:1/4=99]"^rit." z8[Q:1/4=98][Q:1/4=97][Q:1/4=96] | %60
[Q:1/4=95] z4[Q:1/4=92]"^Tempo I\n" z2!p! ([Afa]2[Q:1/4=94] | %61
"_voce"{/[Bgb]} [Afa]2 .[Fdf].[Geg] [Afa]2 [DFd]2 | [EAe]3 [A,A] [A,A]2) ([Ee]2 | %63
 [A,A]2)[K:bass]!pp! ([E,E]2 [A,,A,]2)[K:treble]!p! ([Afa]2 | %64
{/[Bgb]} [Afa]2 .[Fdf].[Geg] [Afa]2) ([DFd]2 |{/f} [Ece]2 .[CAc].[D=Bd] [Ece]2 ([A,CA]2) | %66
!pp! [B,^CEB]6) ([A,CEA]2 | [G,^CEG]6)[K:bass] !>![^F,D^F]2- | [^F,D^F]6 [=F,D=F]2- | %69
 [F,DF]6 [=G,B,E]2- | [G,B,E]2 [F,=B,D]4 [E,A,^C]2- |!pp!!>(! ([E,A,-C]4 [F,A,D]4)!>)! | %72
!ppp! !fermata![D,F,A,D]6 |] %73
V:2
 [D,,A,,D,]2 |{/B,,} [D,,A,,D,]2 (.[D,,F,,D,].[D,,G,,D,]) [D,,A,,D,]2 [D,,F,,D,]2 | %2
 [A,,,E,,A,,]3 [A,,,A,,] [A,,,A,,]2 (E,2 | [A,,A,]2) (E,,2 [A,,,A,,]2) [D,,A,,D,]2 | %4
{/B,,} [D,,A,,D,]2 (.[D,,F,,D,].[D,,G,,D,]) [D,,A,,D,]2 [G,,B,,D,]2 | %5
{/[C,_E,]} [G,,B,,D,]2 (.[G,,B,,].[G,,A,,C,]) [G,,B,,D,]2 _E,2- | (E,2 B,,4) B,,2- | (B,,2 F,,6) | %8
 [A,,,A,,]6 ([B,,,B,,]2 || [C,,C,]2 [D,,D,][C,,C,] [D,,D,]2 [G,,G,]2) | %10
 ([B,,,B,,]2 [C,,C,]2 [D,,D,]3 [G,,,G,,] | %11
 [G,,,G,,]2) ([_E,,,_E,,]2 [F,,,F,,]2 [G,,,G,,][F,,,F,,] | %12
 [G,,,G,,]2 [C,,C,]2) ([_E,,,_E,,]2 [F,,,F,,]2 | %13
 [G,,,G,,]2 [=A,,,=A,,]2 !fermata![A,,,A,,]2) [D,,A,,D,]2 | %14
{/B,,} [D,,A,,D,]2 (.[D,,F,,D,].[D,,G,,D,]) [D,,A,,D,]2 [D,,F,,D,]2 | %15
 [A,,,E,,A,,]3 [A,,,A,,] [A,,,A,,]2 (E,2 | [A,,A,]2) (E,,2 [A,,,A,,]2) [D,,A,,D,]2 | %17
{/B,,} [D,,A,,D,]2 (.[D,,F,,D,].[D,,G,,D,]) [D,,A,,D,]2 [G,,B,,D,]2 | %18
{/[C,_E,]} [G,,B,,D,]2 (.[G,,B,,].[G,,A,,C,]) [G,,B,,D,]2 _E,2- | (E,2 B,,4) B,,2- | (B,,2 F,,6) | %21
 [F,,,A,,]6 B,,2- | B,,6 _E,2 | ([G,D]2 [_E,C]2 [D,A,]3 [G,B,] | [G,B,]2) (G,2 F,2 _E,F, | %25
 _E,2 _A,,2) (C,2 B,,2 | [G,,D,]3 [D,,A,,D,] !fermata![D,,A,,D,]2) || %27
[K:D]"_col Ped."!ped! A,2-!ped-up! |!ped! A,6!ped-up!!ped! (!>![D,D]2!ped-up! | %29
!ped! !>![E,E]2"_ben tenuto" !>![F,F]!>![E,E] !>![F,F]2)!ped-up! A,2- | %30
!ped! A,6!ped-up! (!>![A,,A,]2 | %31
!ped! !>![B,,B,]2 !>![C,C]!>![B,,B,] !>![C,C]2)!ped-up!!ped! ((!>![D,A,-D]2 | %32
!ped! !>![E,A,E]2))"^m.d." .[F,DF].[E,CE] !>![F,DF]2 (3.[B,,B,].[C,C].[^D,^D]!ped-up! | %33
!ped! !>![E,E]2"^m.d."{/[F,F]} .[E,E].[^D,^D] !>![E,E]2!ped-up!!ped! !>![E,E]2 | %34
!ped! !>![^E,^E]2 .[E,CE].[^D,^D] !>![E,CE]2 (3.[C,C].[D,D].[E,E]!ped-up! | %35
!ped! !>![F,F]2{/^G} .[F,F].[^E,^E] !>![F,F]2!ped-up! (3.[F,CF].[F,CF].[F,CF] | %36
!ped! !>![F,CF]2 .[F,F].[E,E] !>![F,F]2!ped-up!!ped! (3[^D,,F,,^D,][D,,F,,D,][D,,F,,D,] | %37
 [^D,,F,,^D,]2!ped-up!!ped! (3[C,,F,,C,][C,,F,,C,][C,,F,,C,] [C,,F,,C,]2!ped-up!!ped! (3[B,,,F,,B,,][B,,,F,,B,,][B,,,F,,B,,] | %38
!ped! [B,,,F,,B,,]2 !wedge![C,C]!wedge![B,,B,]!ped-up!!ped! !^![C,C]2 (3[A,,,A,,][A,,,A,,][A,,,A,,]!ped-up! | %39
!ped! [A,,,A,,]2 (3[G,,A,,][G,,A,,][G,,A,,] !>![G,,A,,]2!ped-up!!ped! (3[F,,,F,,][F,,,F,,][F,,,F,,]!ped-up! | %40
 [F,,,F,,]2!ped-up!!ped! (3[E,,,E,,][E,,,E,,][E,,,E,,] [E,,,E,,]2!ped-up!!ped! (3[D,,,D,,][D,,,D,,][D,,,D,,] | %41
!ped! !>![D,,,D,,]2 !wedge![E,E]!wedge![D,D] [F,F]2!ped-up!!ped! (3[D,,,D,,][D,,,D,,][D,,,D,,]!ped-up! | %42
!ped! !>![D,,,D,,]2 !wedge![E,E]!wedge![D,D] [F,F]2 (3!wedge![D,,,D,,]!wedge!=F,,!wedge!A,,!ped-up! | %43
!ped! !>![_B,,,_B,,]2 !wedge![=C,=C]!wedge![B,,_B,] [D,D]2!ped-up! (3!wedge![D,,,D,,]!wedge!=F,,!wedge!A,, | %44
!ped! !>![_B,,,_B,,]2 !wedge![=C,=C]!wedge![B,,_B,] [D,D]2!ped-up! (3!wedge![D,,,D,,]!wedge!=F,,!wedge!_B,, || %45
[K:F] !>![C,,C,]2 (.[D,,D,].[C,,C,]) !>![D,,D,]2 (3[G,,,G,,][A,,,A,,](([B,,,B,,] | %46
 [B,,,B,,]2)) [C,,C,]2 ([D,,D,]3 [G,,D,G,]) | %47
 [G,,D,G,]2 (3!wedge![_E,,,_E,,]!wedge!B,,!wedge!_E, !>![F,,F,]2 (.[G,,G,].[F,,F,]) | %48
 [G,,G,]2 (3[C,,,C,,][D,,,D,,](([_E,,,_E,,] [E,,,E,,]2)) [F,,,F,,]2 | %49
 ([G,,,G,,]3 [C,,G,,C,]) [C,,G,,C,]2"_marc." (B,,2 | C,2 D,C, D,2 _E,2) | (B,,2 C,2 D,3 _E, | %52
 _E,2) (_E,,2 F,,2 G,,F,, | G,,2 C,2)"_senpre col Ped."!ped! (_E,,2!ped-up!!ped! F,,2 | %54
!ped! G,,2!ped-up!!ped! D,,2)!ped-up!!ped! (_E,,2!ped-up!!ped! F,,2!ped-up! | %55
!ped! G,,2!ped-up!!ped! D,,2)!ped-up!!ped! ([_E,,,_E,,]2!ped-up!!ped! [F,,,F,,]2-!ped-up! | %56
!ped! [F,,,F,,]2!ped-up!!ped! [G,,,G,,]4!ped!!ped-up!!ped! [_E,,,_E,,]2-!ped-up! | %57
!ped! [E,,,E,,]2!ped-up!!ped! [=E,,,=E,,]4!ped-up!!ped!!ped-up!!ped! [F,,,F,,]2-!ped-up! | %58
 [F,,,F,,]) z!pp! (!>![B,,_D,E,]6 | [F,,A,,C,F,]2) [^C,E,]6- | [C,E,]4!ppp! x4 | [D,,D,]8 | %62
 A,,6!ped!!ped-up! (3z .F,.E, | (3z .^C,.A,, (3z .F,,.E,, (3z .^C,,.A,,, x2 | %64
 (3z .B,,.A,, (3z .F,,.G,, (3z .B,,.A,, x2 | (3z .F,,.E,, (3z .C,,.D,, (3z .F,,.E,, (3z .C,,.A,,, | %66
 (3z (!>!.[A,,,A,,].[G,,,G,,]) (3z (!>!.[A,,,A,,].[G,,,G,,]) (3z (!>!.[A,,,A,,].[G,,,G,,]) z2 | %67
 (3z (!>!.[A,,,A,,].[B,,,B,,]) (3z (!>!.[A,,,A,,].[B,,,B,,]) (3z (!>!.[A,,,A,,].[B,,,B,,]) (3z (!>!.[B,,,B,,].[A,,,A,,]) | %68
 (3:2:2z [D,,,D,,]2- [D,,,D,,]4 (3z (.[A,,,A,,].[^G,,,^G,,]) | %69
 (3:2:2z [D,,,D,,]2- [D,,,D,,]4 (3z .^F,,G,,- | G,,2 (3z .G,,^G,,- G,,2 ([A,,,A,,]2 | %71
 [F,,,F,,]4 [D,,,D,,]4) | !fermata![D,,,D,,]6 |] %73
V:3
 x2 | x8 | x8 | x8 | x8 | x6 _E,,2- | E,,6 B,,,2- | B,,,8 | x8 || x8 | x8 | x8 | x8 | x8 | x8 | %15
 x8 | x8 | x8 | x6 _E,,2- | E,,6 B,,,2- | B,,,8 | x6 B,,2 | x8 | x8 | x8 | x8 | x6 ||[K:D] (D,2 | %28
 E,2 F,E, F,2) A,2- | A,6 (A,,2 | B,,2 C,B,, C,2 D,2) | x8 | %32
 z2 (3[B,,,B,,][B,,,B,,][B,,,B,,] [B,,,B,,]2 z2 | z2 (3[E,,,E,,][E,,,E,,][E,,,E,,] [E,,,E,,]2 z2 | %34
 z2 (3[C,,C,][C,,C,][C,,C,] [C,,C,]2 z2 | z2 (3[F,,,F,,][F,,,F,,][F,,,F,,] [F,,,F,,]2 x2 | %36
 x2 (3[E,,F,,][E,,F,,][E,,F,,] [E,,F,,]2 x2 | x8 | x8 | x8 | x8 | x8 | x8 | x8 | x8 ||[K:F] x8 | %46
 x8 | x8 | x8 | x6 (3B,,,B,,,B,,, | B,,,4 !arpeggio!B,,,2- (3B,,,B,,,B,,, | %51
 B,,,4 (!arpeggio!B,,,3- x- | B,,,2) (3_E,,,E,,,E,,, E,,,4 | %53
 !arpeggio!_E,,,2- (3E,,,E,,,E,,, E,,,4 | !arpeggio!_E,,,2- (3E,,,E,,,E,,, E,,,4 | %55
 _E,,,2- (3E,,,E,,,E,,, x4 | x2 x2 x2 x2 | x2 x2 x2 x2 | x8 | x2 (B,,4!>(! A,,G,, | %60
 F,,2 E,,2)!>)! z2 (3z .A,,[D,,D,]- | (3z .B,,.A,, (3z .F,,.G,, (3z .B,,.A,, (3z .F,,.D,, | %62
 (3z .F,,.E,, (3z .^C,,.A,,,"_stacc. e " (3z .F.E x2 | x6 (3z .A,,[D,,D,]- | %64
 [D,,D,]6 (3z .D,,[A,,,A,,]- | [A,,,A,,]8 | x8 | x8 | x8 | x6 D,,2- | D,,6 x2 | x8 | x6 |] %73
V:4
 x2 | x8 | x8 | x8 | x8 | x8 | x6[K:bass] (^C,2 | D,6-) (D,2 | ^C,6)[K:treble] x2 || x8 | x8 | x8 | %12
 x8 | (D2 ^C2 !fermata!=E2) x2 | x8 | x8 | x8 | x8 | x8 | x6[K:bass] (^C,2 | D,6-) D,2 | %21
 C,6[K:treble] (D2 |[I:staff +1] C2 B,C B,2 _E,2) | x8 | x8 | x8 | x6 ||[K:D] x2 | %28
 z2[I:staff -1][K:bass] (3[D,,A,,][D,,A,,][D,,A,,] [D,,A,,]2[K:treble] x2 | %29
 z2[K:bass]"^cresc." (3[D,,A,,][D,,A,,][D,,A,,] [D,,A,,]2[K:treble] x2 | %30
 z2[K:bass] (3[A,,,E,,][A,,,E,,][A,,,E,,] [A,,,E,,]2[K:treble] x2 | %31
 z2[K:bass] (3[A,,,E,,][A,,,E,,][A,,,E,,] [A,,,E,,]2[K:treble] x2 | x8 | x8 | x8 | x8 | x8 | x8 | %38
 x8 | z2 !wedge![A,A]!wedge![G,G] !>![A,A]2 x2 | x2!8va(! x6 | %41
 z2!8va)! (3[Afa][Afa][Afa] [Afa]2!8va(! z2 | z2!8va)! (3[Afa][Afa][Afa] [Afa]2!8va(! z2 | %43
 z2!8va)! (3[=Fd=f][Fdf][Fdf] [Fdf]2!8va(! z2 | z2!8va)! (3[=Fd=f][Fdf][Fdf] [Fdf]2 x2 ||[K:F] x8 | %46
 x8 | x8 | x8 | x8 | x8 | x8 | x8 | x8 | x8 | x8 | x8 | x8 | x4 x2 x2 | x8 | x8 | x8 | x8 | %63
 x2[K:bass] x4[K:treble] x2 | x8 | x8 | x8 | x6[K:bass] x2 | %68
 (3z!p! (.B,.A,) (3z (.B,.A,)"_dim. ma sempre in tempo" (3z (.B,.A,) x2 | %69
 (3z (.A,.^G,) (3z (.A,.G,) (3z (.A,.G,) x2 | x8 | x8 | x6 |] %73

